resources/haticons/SVG/file-zip.svg

<!-- Generated by IcoMoon.io -->
<svg version="1.1" xmlns="http://www.w3.org/2000/svg" width="24" height="24" viewBox="0 0 24 24">
<title>file-zip</title>
<path d="M21.511 5.369c-0.52-0.71-1.246-1.54-2.043-2.337s-1.627-1.523-2.337-2.043c-1.209-0.886-1.795-0.989-2.131-0.989h-11.625c-1.034 0-1.875 0.841-1.875 1.875v20.25c0 1.034 0.841 1.875 1.875 1.875h17.25c1.034 0 1.875-0.841 1.875-1.875v-14.625c0-0.336-0.102-0.922-0.989-2.131v0 0zM18.407 4.093c0.72 0.72 1.284 1.369 1.701 1.907h-3.608v-3.608c0.539 0.417 1.188 0.982 1.907 1.701v0 0zM21 22.125c0 0.203-0.172 0.375-0.375 0.375h-17.25c-0.203 0-0.375-0.172-0.375-0.375v-20.25c0-0.203 0.172-0.375 0.375-0.375 0 0 11.624-0 11.625 0v5.25c0 0.414 0.336 0.75 0.75 0.75h5.25v14.625z"></path>
<path d="M6 1.5h3v1.5h-3v-1.5z"></path>
<path d="M9 3h3v1.5h-3v-1.5z"></path>
<path d="M6 4.5h3v1.5h-3v-1.5z"></path>
<path d="M9 6h3v1.5h-3v-1.5z"></path>
<path d="M6 7.5h3v1.5h-3v-1.5z"></path>
<path d="M9 9h3v1.5h-3v-1.5z"></path>
<path d="M6 10.5h3v1.5h-3v-1.5z"></path>
<path d="M9 12h3v1.5h-3v-1.5z"></path>
<path d="M6 19.875c0 0.619 0.506 1.125 1.125 1.125h3.75c0.619 0 1.125-0.506 1.125-1.125v-3.75c0-0.619-0.506-1.125-1.125-1.125h-1.875v-1.5h-3v6.375zM10.5 18v1.5h-3v-1.5h3z"></path>
</svg>

<svg xmlns="http://www.w3.org/2000/svg" width="24" height="24"><path d="M21.511 5.369c-.52-.71-1.246-1.54-2.043-2.337S17.841 1.509 17.131.989C15.922.103 15.336 0 15 0H3.375A1.877 1.877 0 0 0 1.5 1.875v20.25C1.5 23.159 2.341 24 3.375 24h17.25a1.877 1.877 0 0 0 1.875-1.875V7.5c0-.336-.102-.922-.989-2.131zm-3.104-1.276c.72.72 1.284 1.369 1.701 1.907H16.5V2.392c.539.417 1.188.982 1.907 1.701zM21 22.125a.38.38 0 0 1-.375.375H3.375A.38.38 0 0 1 3 22.125V1.875a.38.38 0 0 1 .375-.375H15v5.25c0 .414.336.75.75.75H21v14.625z"/><path d="M6 1.5h3V3H6V1.5zM9 3h3v1.5H9V3zM6 4.5h3V6H6V4.5zM9 6h3v1.5H9V6zM6 7.5h3V9H6V7.5zM9 9h3v1.5H9V9zm-3 1.5h3V12H6v-1.5zM9 12h3v1.5H9V12zm-3 7.875C6 20.494 6.506 21 7.125 21h3.75c.619 0 1.125-.506 1.125-1.125v-3.75c0-.619-.506-1.125-1.125-1.125H9v-1.5H6v6.375zM10.5 18v1.5h-3V18h3z"/></svg>
